icons/last_fm.svg

<?xml version="1.0" encoding="UTF-8" standalone="no"?>
<svg width="38px" height="28px" viewBox="0 0 38 28" version="1.1" xmlns="http://www.w3.org/2000/svg" xmlns:xlink="http://www.w3.org/1999/xlink" xmlns:sketch="http://www.bohemiancoding.com/sketch/ns">
    <!-- Generator: Sketch 3.2.2 (9983) - http://www.bohemiancoding.com/sketch -->
    <title>last_fm</title>
    <desc>Created with Sketch.</desc>
    <defs>
        <filter x="-50%" y="-50%" width="200%" height="200%" filterUnits="objectBoundingBox" id="filter-1">
            <feOffset dx="0" dy="0" in="SourceAlpha" result="shadowOffsetOuter1"></feOffset>
            <feGaussianBlur stdDeviation="3" in="shadowOffsetOuter1" result="shadowBlurOuter1"></feGaussianBlur>
            <feColorMatrix values="0 0 0 0 0.627577594   0 0 0 0 0.627577594   0 0 0 0 0.627577594  0 0 0 0.326024683 0" in="shadowBlurOuter1" type="matrix" result="shadowMatrixOuter1"></feColorMatrix>
            <feMerge>
                <feMergeNode in="shadowMatrixOuter1"></feMergeNode>
                <feMergeNode in="SourceGraphic"></feMergeNode>
            </feMerge>
        </filter>
    </defs>
    <g id="Page-1" stroke="none" stroke-width="1" fill="none" fill-rule="evenodd" sketch:type="MSPage">
        <g id="Group" sketch:type="MSLayerGroup" transform="translate(-182.000000, -30.000000)" fill-opacity="0.789855072" filter="url(#filter-1)" fill="#FFFFFF">
            <path d="M210.907772,42.7129008 C208.833156,42.0372856 207.348074,41.7867263 207.348074,40.1357196 C207.348074,38.9753915 208.251124,38.1014169 209.512694,38.1014169 C210.420244,38.1014169 211.135784,38.4563758 211.78682,39.360179 L213.505916,38.4862043 C212.629867,36.9395973 211.360797,36.1625652 209.605699,36.1625652 C206.91605,36.1625652 205.261458,37.7762864 205.261458,40.196868 C205.261458,42.6800895 206.884548,43.7136465 210.034723,44.7457122 C211.78682,45.3243848 212.823378,45.6793438 212.823378,47.163311 C212.823378,48.6785981 211.461302,49.8806861 209.478192,49.8105891 C207.46208,49.743475 206.841046,48.6487696 206.109005,46.9903057 C204.93444,44.3191648 203.582865,41.1812081 203.477859,40.9366145 C202.100783,37.7807606 199.396133,36 196.041946,36 C191.5972,36 188,39.5824012 188,44 C188,48.4190902 191.5972,52 196.041946,52 C198.550086,52 200.78821,50.8605518 202.264292,49.0753169 L201.224734,46.6920209 C200.24968,48.5443699 198.292071,49.8120805 196.041946,49.8120805 C192.819768,49.8120805 190.199122,47.2110365 190.199122,44 C190.199122,40.7919463 192.818267,38.1894109 196.041946,38.1894109 C198.427079,38.1894109 200.539196,39.5794183 201.391243,41.6405667 L203.957886,47.4601044 L204.256402,48.1148397 C205.29596,50.5264728 206.793043,51.8926174 209.605699,51.9045488 C212.661369,51.9075317 214.999999,49.9388516 214.999999,47.2259508 C215.001499,44.650261 213.702427,43.6181954 210.907772,42.7129008 L210.907772,42.7129008 Z" id="last_fm" sketch:type="MSShapeGroup"></path>
        </g>
    </g>
</svg>

<svg width="38" height="28" viewBox="0 0 38 28" xmlns="http://www.w3.org/2000/svg"><title>last_fm</title><desc>Created with Sketch.</desc><defs><filter x="-50%" y="-50%" width="200%" height="200%" filterUnits="objectBoundingBox" id="a"><feOffset in="SourceAlpha" result="shadowOffsetOuter1"/><feGaussianBlur stdDeviation="3" in="shadowOffsetOuter1" result="shadowBlurOuter1"/><feColorMatrix values="0 0 0 0 0.627577594 0 0 0 0 0.627577594 0 0 0 0 0.627577594 0 0 0 0.326024683 0" in="shadowBlurOuter1" result="shadowMatrixOuter1"/><feMerge><feMergeNode in="shadowMatrixOuter1"/><feMergeNode in="SourceGraphic"/></feMerge></filter></defs><g fill="none" fill-rule="evenodd"><g transform="translate(-182 -30)" fill-opacity=".79" filter="url(#a)" fill="#fff"><path d="M210.908 42.713c-2.075-.676-3.56-.926-3.56-2.577 0-1.16.903-2.035 2.165-2.035.907 0 1.623.356 2.274 1.26l1.72-.874c-.877-1.546-2.146-2.323-3.9-2.323-2.69 0-4.346 1.613-4.346 4.034 0 2.483 1.625 3.517 4.775 4.55 1.752.577 2.788.932 2.788 2.416 0 1.516-1.362 2.718-3.345 2.648-2.016-.067-2.637-1.16-3.37-2.82-1.174-2.67-2.525-5.81-2.63-6.053C202.1 37.78 199.396 36 196.042 36c-4.445 0-8.042 3.582-8.042 8 0 4.42 3.597 8 8.042 8 2.508 0 4.746-1.14 6.222-2.925l-1.04-2.383c-.974 1.852-2.932 3.12-5.182 3.12-3.222 0-5.843-2.6-5.843-5.812 0-3.208 2.618-5.81 5.842-5.81 2.385 0 4.497 1.39 5.35 3.45l2.566 5.82.298.655c1.04 2.41 2.537 3.778 5.35 3.79 3.055.003 5.394-1.966 5.394-4.68 0-2.575-1.298-3.607-4.092-4.512z"/></g></g></svg>
